tools/download-figma-icons/icons/solid/goal.svg

<svg width="25" height="24" viewBox="0 0 25 24" fill="none" xmlns="http://www.w3.org/2000/svg">
<path d="M10.5396 12.9023L8.37472 9.67891C8.20696 9.43096 7.8395 9.43096 7.67174 9.67891L1.07333 20.6288C0.881606 20.9088 1.0893 21.2927 1.42482 21.2927H24.5752C24.9107 21.2927 25.1184 20.9168 24.9267 20.6368L14.7734 4.19196C14.6057 3.93601 14.2382 3.93601 14.0704 4.19196L9.6289 11.5426" fill="black"/>
<path d="M11.5592 11.0363L14.5309 12.4121C14.8344 12.548 14.8424 12.972 14.5548 13.1239L11 14.9876V11.3963C11 11.1083 11.2956 10.9163 11.5592 11.0363Z" fill="black"/>
</svg>

<svg xmlns="http://www.w3.org/2000/svg" width="25" height="24" fill="none" viewBox="0 0 25 24"><path fill="currentColor" d="M10.54 12.902 8.375 9.68a.425.425 0 0 0-.703 0L1.073 20.63a.427.427 0 0 0 .352.664h23.15a.421.421 0 0 0 .352-.656L14.773 4.192a.418.418 0 0 0-.703 0l-4.441 7.35"/><path fill="currentColor" d="m11.56 11.036 2.97 1.376c.304.136.312.56.025.712L11 14.988v-3.592c0-.288.296-.48.56-.36"/></svg>
